X:1
T:Title
%%score { ( 1 4 ) | ( 2 3 ) }
L:1/8
M:4/4
K:F
V:1 treble nm="Grand Piano"
V:4 treble 
V:2 bass 
V:3 bass 
V:1
 z8 | [FAc]2 [FAc]2 [EGBc]2 [EGBc]2 |[M:9/8] [FAc]2 [FAc]- [FAc] [FAc]2- [FAc] [A,CF]2 | %3
[M:4/4] [CFA]4 [B,EG]4 | [A,CF]6 z2 | [FAc]2 [FAc]2 [EGBc]2 c2 |[M:7/8] c2 c2 c3 |[M:1/4] [Ad]2 | %8
[M:4/4] [Ge]4 [Fd]4 | [CEc]6 c2 | [GB]2 A2 G2 F2 | %11
[M:9/8] [CE]2 D- D[K:bass] [F,A,C]2- [F,A,C][K:treble] c2 |[M:4/4] [Bd]2 c2 B2 A2 | %13
[M:7/8] [EG]2 F2 G3 |[M:1/4] z2 |[M:4/4] [FAc]2 [FAc]2 [EGBc]2 [EGBc]2 | %16
[M:9/8] [FAc]2 [FAc]- [FAc] [FAc]2- [FAc] [DFd]2 |[M:4/4] [CFA]4 [B,EG]4 |[M:3/4] [A,F]6 | %19
[M:6/4] z2 d4- d2 c4- | c2 F4- F4 z2 | z2 D4- D2 D4- | D2 D4- D6 | F2 E4 E2 E2 [DF]2 | %24
 [EG]2 F4 F2 F2 G2 | A2 G4- G2 d4- |[M:5/4] d2 [B,EG]2- [B,EG]6- |[M:1/4] [B,EG]2 | c2 | %29
[M:6/4] d6 c6 | .F12 | d2- [Bd-]2 [Bd]2 z2 c2 c2 | z2 =B2 B2 B4 [Bd]2 | [Be]4 [Bd]2 [Ac]4 [GB]2 | %34
 A4 c2 B4 [Fd]2 | .[A,FA]6 [B,EG]6 |[M:5/4] [A,CF]2- [A,CF]2- [A,CF]6 |] %37
V:2
 z4 z2 C,2 | F,2 A,2 G,2 B,2 |[M:9/8] A,2 C- C C2- C F,2 |[M:4/4] C,4 C,4 | F,6 C,2 | %5
 F,2 A,2 G,2[K:treble] [B,EGB]2 |[M:7/8] [A,FA]2 [CFA]2 [CFA]3 |[M:1/4][K:bass] [F,C]2 | %8
[M:4/4] [G,C]4 [G,=B,]4 | C,6 E2 | z2[K:treble] F2 E2 D2 |[M:9/8][K:bass] z2 B,- B, F,,2- F,, A2 | %12
[M:4/4] z2[K:treble] A2 G2 F2 |[M:7/8][K:bass] z2 D2 E3 |[M:1/4] C,2 |[M:4/4] F,2 A,2 G,2 B,2 | %16
[M:9/8] A,2 C- C C2- C B,,2 |[M:4/4] C,4 C,4 |[M:3/4] F,6 |[M:6/4][K:treble] .C4 F2 .F4 F2 | %20
 .F4[K:bass] A,2 A,2 A,2 G,2 | A,2 [B,,F,]4- [B,,F,]2 [A,,^F,]4- | [A,,F,]2 [G,,G,]4- [G,,G,]6 | %23
 [G,B,D]2 [C,B,C]4 [C,B,C]2 [C,G,C]2 [C,G,]2 | [C,B,]2 [F,A,C]4 [F,A,C]2 [F,A,C]2 [F,B,C]2 | %25
 [F,CF]2 [G,=B,F]4- [G,B,F]2 [G,B,F]4- |[M:5/4] [G,B,F]2[K:bass] C,2- C,6- |[M:1/4] C,2 | C2 | %29
[M:6/4] z2[K:treble] F2 F2 z2 F2 F2 | z2 A,2 A,2 A,2 G,2 A,2 | %31
 z2[K:treble] [DF]2 [DF]2[K:bass] z2[K:treble] [^FA]2 [FA]2 | %32
 z2[K:treble] G2 G2 [FG]4[K:bass] [G,D]2 | [C,C]4 [C,C]2 [D,C]4 [E,C]2 | %34
 [F,CF]4 [^F,A,_E]2 [G,B,D]4 [B,,B,]2 | z4 C2 C,6 |[M:5/4] F,2- F,2- F,6 |] %37
V:3
 x8 | x8 |[M:9/8] x9 |[M:4/4] x8 | x8 | x6[K:treble] x2 |[M:7/8] x7 |[M:1/4][K:bass] x2 | %8
[M:4/4] x8 | x8 | [C,,C,]8[K:treble] |[M:9/8][K:bass] .[C,,C,]6 z3 |[M:4/4] [C,,C,]8[K:treble] | %13
[M:7/8][K:bass] [C,,C,]-[C,,C,]-[C,,C,]- [C,,C,]- [C,,C,]3 |[M:1/4] x2 |[M:4/4] x8 |[M:9/8] x9 | %17
[M:4/4] x8 |[M:3/4] x6 |[M:6/4][K:treble] z2 D4- D2 C4- | C2[K:bass] F,4- F,4 z2 | x12 | x12 | %23
 x12 | x12 | x12 |[M:5/4] x2[K:bass] x8 |[M:1/4] x2 | x2 |[M:6/4] D6[K:treble] C6 | .F,12 | %31
 [B,,B,]6[K:treble][K:bass] [A,,A,]6[K:treble] | [G,,G,]12[K:treble][K:bass] | x12 | x12 | C,6 z6 | %36
[M:5/4] x10 |] %37
V:4
 x8 | x8 |[M:9/8] x9 |[M:4/4] x8 | x8 | x8 |[M:7/8] x7 |[M:1/4] x2 |[M:4/4] x8 | x8 | x8 | %11
[M:9/8] x4[K:bass] x3[K:treble] x2 |[M:4/4] x8 |[M:7/8] x7 |[M:1/4] x2 |[M:4/4] x8 |[M:9/8] x9 | %17
[M:4/4] x8 |[M:3/4] x6 |[M:6/4] .c4 A2 .A4 A2 | .A4 C2 C2 C2 G2 | .A4 B,2 .B,4 C2 | %22
 .C4 B,2 B,2 B,4 | x12 | x12 | x12 |[M:5/4] x10 |[M:1/4] x2 | x2 |[M:6/4] z2 A2 A2 z2 A2 A2 | %30
 z2 C2 C2 C2 G2 A2 | .D6 [Dd]6 | [Dd]12 | x12 | x12 | x12 |[M:5/4] x10 |] %37

